public/external-logos/reddit-logo.svg

<svg width="122" height="42" viewBox="0 0 122 42" fill="none" xmlns="http://www.w3.org/2000/svg">
<path d="M107.234 14.869C107.234 13.4261 108.391 12.2717 109.838 12.2717C111.286 12.2717 112.443 13.4261 112.443 14.869C112.443 16.312 111.286 17.4664 109.838 17.4664C108.391 17.4664 107.234 16.312 107.234 14.869Z" fill="black"/>
<path d="M72.0703 26.124H62.9538C63.3879 28.4328 64.9797 30.1643 67.0055 30.1643C68.742 30.1643 69.755 29.2985 70.3338 28.7214C70.9126 28.2885 71.6361 28.1442 72.3597 28.5771C73.0832 29.1542 73.2279 30.1643 72.6491 30.8858C71.3467 32.3287 69.6103 33.1945 67.1503 33.1945C63.2432 33.1945 60.0597 29.5871 60.0597 25.2583C60.0597 20.9294 63.2432 17.322 67.1503 17.322C70.4785 17.322 73.2279 19.9193 74.0961 23.2381C74.0961 23.5267 74.2408 23.8153 74.2408 24.3925C74.0961 25.114 73.3726 26.124 72.0703 26.124ZM62.9538 23.5267H70.9126C70.3338 21.6509 68.742 20.2079 67.0055 20.2079C65.1244 20.2079 63.6773 21.5066 62.9538 23.5267Z" fill="black"/>
<path d="M59.9149 18.765C59.9149 18.0435 59.3361 17.4663 58.6126 17.322C56.5867 17.0334 54.5608 17.7549 53.2585 19.3422V19.1979C53.2585 18.3321 52.5349 17.7549 51.8114 17.7549C50.9432 17.7549 50.3643 18.4764 50.3643 19.1979V31.463C50.3643 32.1844 50.9432 32.9059 51.8114 33.0502C52.6796 33.0502 53.4032 32.473 53.4032 31.6073V25.2583C53.4032 22.5167 55.5738 20.2079 58.4679 20.4965H58.7573C59.3361 20.2079 59.9149 19.4865 59.9149 18.765Z" fill="black"/>
<path d="M111.43 20.3522C111.286 19.4865 110.562 18.9093 109.838 19.0536C109.115 19.0536 108.536 19.6308 108.536 20.3522V31.3187C108.681 32.1845 109.404 32.7616 110.128 32.6173C110.851 32.6173 111.43 32.0402 111.43 31.3187C111.43 31.1744 111.43 20.3522 111.43 20.3522Z" fill="black"/>
<path d="M89.1455 31.1744C89.1455 32.0402 88.422 32.6173 87.6985 32.6173C86.9749 32.6173 86.3961 32.0402 86.2514 31.463C85.2385 32.473 83.9361 33.0502 82.3443 33.0502C78.4373 33.0502 75.2538 29.4428 75.2538 25.114C75.2538 20.7851 78.4373 17.1777 82.3443 17.1777C83.9361 17.1777 85.0938 17.6106 86.2514 18.6207V11.9831C86.3961 11.1173 87.1196 10.5402 87.8432 10.6845C88.5667 10.6845 89.1455 11.2616 89.1455 11.9831V31.1744ZM86.3961 25.114C86.3961 22.3724 84.5149 20.0636 82.1996 20.0636C79.8843 20.0636 78.1479 22.3724 78.1479 25.114C78.1479 27.8556 80.029 30.02 82.3443 30.02C84.5149 30.1643 86.3961 27.8556 86.3961 25.114Z" fill="black"/>
<path d="M104.774 31.1744C104.774 32.0402 104.05 32.6173 103.327 32.6173C102.603 32.6173 102.024 32.0402 101.88 31.463C100.867 32.473 99.5644 33.0502 97.9726 33.0502C94.0655 33.0502 90.882 29.4428 90.882 25.114C90.882 20.7851 94.0655 17.1777 97.9726 17.1777C99.5644 17.1777 100.722 17.6106 101.88 18.6207V11.9831C102.024 11.1173 102.748 10.5402 103.471 10.6845C104.195 10.6845 104.774 11.2616 104.774 11.9831V31.1744ZM102.024 25.114C102.024 22.3724 100.143 20.0636 97.8279 20.0636C95.5126 20.0636 93.6314 22.2281 93.6314 25.114C93.6314 27.8556 95.5126 30.02 97.8279 30.02C100.288 30.1643 102.024 27.8556 102.024 25.114Z" fill="black"/>
<path d="M118.955 31.3186V20.2079H120.257C120.981 20.2079 121.56 19.6307 121.56 18.9092C121.56 18.1878 120.981 17.4663 120.257 17.4663C120.257 17.4663 120.257 17.4663 120.113 17.4663H118.81V15.3018C118.81 14.5804 118.231 13.8589 117.363 13.7146C116.495 13.7146 115.771 14.2918 115.771 15.1576V17.322H114.469C113.746 17.322 113.167 17.8992 113.167 18.6206C113.167 19.3421 113.746 20.0636 114.469 20.0636H115.771V31.1743C115.771 32.0401 116.495 32.6173 117.218 32.6173C118.376 32.7616 118.955 32.0401 118.955 31.3186Z" fill="black"/>
<path fill-rule="evenodd" clip-rule="evenodd" d="M20.4102 0.00668522C8.83376 0.295276 -0.282707 9.81877 0.00670424 21.3624C0.296116 32.4731 9.26788 41.4194 20.2655 41.8523C31.842 42.1409 41.5373 33.0503 41.8267 21.5067V20.3523C41.5373 8.8087 31.9867 -0.281905 20.4102 0.00668522ZM33.1443 24.9698V24.104C34.1573 23.6711 35.0255 22.661 34.5914 21.3624C34.5914 20.4966 34.302 19.7751 33.7232 19.198C32.5655 18.0436 30.5396 18.0436 29.382 19.198C27.3561 17.755 24.462 16.7449 21.2785 16.6006L22.7255 10.1074L27.2114 11.1174C27.2114 11.9832 27.6455 12.7047 28.3691 12.9933C29.382 13.5704 30.6843 12.9933 31.2632 11.9832C31.842 10.9731 31.2632 9.67447 30.2502 9.09729C29.2373 8.52011 27.9349 9.09729 27.3561 10.1074L22.2914 8.953C22.1467 8.953 22.002 8.95299 21.8573 9.09729C21.8573 9.09729 21.7126 9.24159 21.7126 9.38588L20.1208 16.6006C17.2267 16.6006 14.3326 17.6107 11.8726 19.198C11.2938 18.6208 10.5702 18.3322 9.702 18.3322C8.54435 18.1879 7.3867 18.9094 6.95259 20.0637C6.37376 21.651 6.95259 23.3825 8.54435 24.104V24.9698C8.54435 29.7315 14.0432 33.4832 20.8443 33.4832C27.6455 33.4832 33.1443 29.7315 33.1443 24.9698ZM18.3843 23.5268C18.3843 24.6812 17.3714 25.6912 16.2138 25.6912C14.9114 25.6912 14.0432 24.6812 14.0432 23.5268C14.0432 22.3725 15.0561 21.3624 16.2138 21.3624C17.3714 21.3624 18.3843 22.3725 18.3843 23.5268ZM25.4749 28.4329C25.6196 28.1443 25.9091 28.1443 26.1985 28.4329C26.2619 28.5594 26.2975 28.6859 26.3297 28.8003C26.371 28.9468 26.4066 29.0733 26.4879 29.1543C24.8961 30.5973 22.1467 30.7416 21.2785 30.7416C20.4102 30.7416 17.5161 30.5973 16.0691 29.1543C15.7796 29.01 15.7796 28.7215 16.0691 28.4329C16.2138 28.1443 16.5032 28.1443 16.7926 28.4329C17.6608 29.4429 19.6867 29.7315 21.1338 29.7315C22.5808 29.7315 24.6067 29.4429 25.4749 28.4329ZM25.7643 21.3624C26.922 21.3624 27.9349 22.3725 27.9349 23.5268C27.9349 24.6812 26.922 25.6912 25.7643 25.6912C24.6067 25.6912 23.5938 24.6812 23.5938 23.5268C23.5938 22.3725 24.6067 21.3624 25.7643 21.3624Z" fill="#FF4500"/>
</svg>

<svg width="122" height="42" fill="none" xmlns="http://www.w3.org/2000/svg"><path d="M107.234 14.869a2.59 2.59 0 0 1 2.604-2.597 2.59 2.59 0 0 1 2.605 2.597 2.59 2.59 0 0 1-2.605 2.597 2.59 2.59 0 0 1-2.604-2.597ZM72.07 26.124h-9.116c.434 2.309 2.026 4.04 4.051 4.04 1.737 0 2.75-.866 3.329-1.443.579-.433 1.302-.577 2.026-.144.723.577.868 1.587.29 2.309-1.303 1.443-3.04 2.308-5.5 2.308-3.907 0-7.09-3.607-7.09-7.936s3.183-7.936 7.09-7.936c3.328 0 6.078 2.597 6.946 5.916 0 .289.145.577.145 1.154-.145.722-.868 1.732-2.17 1.732Zm-9.116-2.597h7.959c-.58-1.876-2.171-3.32-3.907-3.32-1.882 0-3.329 1.3-4.052 3.32ZM59.915 18.765c0-.721-.579-1.299-1.302-1.443-2.026-.289-4.052.433-5.355 2.02v-.144c0-.866-.723-1.443-1.447-1.443-.868 0-1.447.721-1.447 1.443v12.265c0 .721.58 1.443 1.447 1.587.869 0 1.592-.577 1.592-1.443v-6.349c0-2.741 2.17-5.05 5.065-4.761h.29c.578-.29 1.157-1.01 1.157-1.732ZM111.43 20.352c-.144-.866-.868-1.443-1.592-1.298-.723 0-1.302.577-1.302 1.298V31.32c.145.866.868 1.443 1.592 1.298.723 0 1.302-.577 1.302-1.298V20.352ZM89.145 31.174c0 .866-.723 1.443-1.447 1.443-.723 0-1.302-.577-1.447-1.154-1.013 1.01-2.315 1.587-3.907 1.587-3.907 0-7.09-3.607-7.09-7.936s3.183-7.936 7.09-7.936c1.592 0 2.75.433 3.907 1.443v-6.638c.145-.866.869-1.443 1.592-1.299.724 0 1.302.578 1.302 1.3v19.19Zm-2.749-6.06c0-2.742-1.881-5.05-4.196-5.05-2.316 0-4.052 2.308-4.052 5.05s1.881 4.906 4.196 4.906c2.17.144 4.052-2.164 4.052-4.906ZM104.774 31.174c0 .866-.724 1.443-1.447 1.443-.724 0-1.303-.577-1.447-1.154-1.013 1.01-2.316 1.587-3.907 1.587-3.907 0-7.091-3.607-7.091-7.936s3.183-7.936 7.09-7.936c1.592 0 2.75.433 3.908 1.443v-6.638c.144-.866.868-1.443 1.591-1.299.724 0 1.303.578 1.303 1.3v19.19Zm-2.75-6.06c0-2.742-1.881-5.05-4.196-5.05-2.315 0-4.197 2.164-4.197 5.05 0 2.742 1.882 4.906 4.197 4.906 2.46.144 4.196-2.164 4.196-4.906ZM118.955 31.319V20.208h1.302c.724 0 1.303-.577 1.303-1.299 0-.721-.579-1.443-1.303-1.443H118.81v-2.164c0-.722-.579-1.443-1.447-1.587-.868 0-1.592.577-1.592 1.443v2.164h-1.302c-.723 0-1.302.577-1.302 1.299 0 .721.579 1.443 1.302 1.443h1.302v11.11c0 .866.724 1.443 1.447 1.443 1.158.145 1.737-.577 1.737-1.298Z" fill="#000"/><path fill-rule="evenodd" clip-rule="evenodd" d="M20.41.007C8.834.295-.283 9.819.007 21.362c.29 11.111 9.26 20.057 20.258 20.49 11.577.289 21.272-8.802 21.562-20.345v-1.155C41.537 8.81 31.987-.282 20.41.007ZM33.144 24.97v-.866c1.013-.433 1.882-1.443 1.447-2.742 0-.865-.289-1.587-.868-2.164-1.157-1.154-3.183-1.154-4.341 0-2.026-1.443-4.92-2.453-8.104-2.597l1.448-6.494 4.485 1.01c0 .866.434 1.588 1.158 1.876 1.013.577 2.315 0 2.894-1.01.579-1.01 0-2.309-1.013-2.886s-2.315 0-2.894 1.01l-5.065-1.154c-.144 0-.289 0-.434.144 0 0-.144.145-.144.289L20.12 16.6c-2.894 0-5.788 1.01-8.248 2.597-.58-.577-1.303-.866-2.171-.866-1.158-.144-2.315.577-2.75 1.732-.578 1.587 0 3.319 1.592 4.04v.866c0 4.762 5.5 8.513 12.3 8.513 6.801 0 12.3-3.751 12.3-8.513Zm-14.76-1.443c0 1.154-1.013 2.164-2.17 2.164-1.303 0-2.17-1.01-2.17-2.164 0-1.155 1.012-2.165 2.17-2.165 1.157 0 2.17 1.01 2.17 2.165Zm7.09 4.906c.146-.289.435-.289.724 0 .064.126.1.253.132.367.041.147.077.273.158.354-1.592 1.443-4.341 1.588-5.21 1.588-.868 0-3.762-.145-5.209-1.588-.29-.144-.29-.433 0-.721.145-.289.434-.289.724 0 .868 1.01 2.894 1.299 4.34 1.299 1.448 0 3.474-.29 4.342-1.3Zm.29-7.07c1.158 0 2.17 1.01 2.17 2.164 0 1.154-1.012 2.164-2.17 2.164-1.157 0-2.17-1.01-2.17-2.164 0-1.155 1.013-2.165 2.17-2.165Z" fill="#FF4500"/></svg>
